X: 1
T: I Saw Three Ships
T: Miss. (Nancy) Dawson's hornpipe
C: trad. England (1600s)
R: jig, air, song
S: printed page from Darlene Wigton
Z: 2022 John Chambers <jc:trillian.mit.edu>
M: 6/8
L: 1/8
Q: 3/8=90
K: C
G |\
"C"c2d c2e | g2e c2e| "F"d2e d2e | "G"d2B A2 ||
G |\
"C"c2d c2e | "Am"g2e c2e | "D"d2c B2A | "G"G2-G G2 |]
G |\
"G"d2e d2e | d2B A2G | "C"e2f g2a | g2f e2 ||
c |\
"Dm"f2e f2g | "F"a2b "Am"c'2a | "C"g2f "G"e2d | "C"c2-c c2 |]
